X: 09041
T: FRANK'S BACK
C: Bob McQuillen 19 Sept 92
B: Bob's Note Book 9 #41
%R: jig
Z: 2018 John Chambers <jc:trillian.mit.edu>
M: 6/8
L: 1/8
K: G
D \
| GAB AGA | B2G D2B | cde dBG | FGA DEF |
| GAB AGA | B2G DGB | dcB AGF | G3- G2 :|
|: E \
| DGB d2E | DGB d2B | cde dBG | BdB AGE |
| DGB dBd | gfe dBG | FGA DEF | G3- G2 :|
%%begintext align
%% The day before we were scheduled to play
%% a dance at the '92 Folklife Festival in Seattle, Frank Blade threw
%% his back out, and he was in real serious pain. You know what?
%% The next day he showed up a half hour before starting time, and
%% played the whole set perfectly; you'ld never have known there
%% was anything bothering him! I mean not even a litle bit. You
%% sure earned the gold medal for courage that time, Frank. We
%% couldn't have done it without you!
%%endtext

%%sep 1 1 500

%%sep 1 1 500

